src/icons/multiple-windows.svg

<svg width="16" height="16" xmlns="http://www.w3.org/2000/svg"><path fill-rule="evenodd" clip-rule="evenodd" d="M6 1.5l.5-.5h8l.5.5v7l-.5.5H12V8h2V4H7v1H6V1.5zM7 2v1h7V2H7zM1.5 7l-.5.5v7l.5.5h8l.5-.5v-7L9.5 7h-8zM2 9V8h7v1H2zm0 1h7v4H2v-4z"/></svg>

<svg width="16" height="16" viewBox="0 0 16 16" fill="none" xmlns="http://www.w3.org/2000/svg">
<path fill-rule="evenodd" clip-rule="evenodd" d="M6 1.5L6.5 1H14.5L15 1.5V3.5V8.5L14.5 9H12V8H14V4H7V5H6V3.5V1.5ZM7 2V3H14V2H7ZM1.5 7L1 7.5V14.5L1.5 15H9.5L10 14.5V7.5L9.5 7H1.5ZM2 9V8H9V9H2ZM2 10H9V14H2V10Z" fill="#C5C5C5"/>
</svg>
